Newaita-dark/apps/16/com.github.ronnydo.wammer.svg

<svg height="16" viewBox="0 0 16 16" width="16" xmlns="http://www.w3.org/2000/svg" xmlns:xlink="http://www.w3.org/1999/xlink"><linearGradient id="a"><stop offset="0" stop-opacity=".313726"/><stop offset=".222222" stop-opacity=".27451"/><stop offset="1" stop-opacity="0"/></linearGradient><radialGradient id="b" cx="450.908936" cy="189.579361" gradientTransform="matrix(.00000009 -.0390662 -.0703192 -.00000005 21.103913 31.753564)" gradientUnits="userSpaceOnUse" r="21.166656" xlink:href="#a"/><radialGradient id="c" cx="450.908936" cy="189.579361" gradientTransform="matrix(-.00000009 .0390662 .0703192 .00000005 -5.227395 -3.807842)" gradientUnits="userSpaceOnUse" r="21.166656" xlink:href="#a"/><radialGradient id="d" cx="450.908936" cy="189.579361" gradientTransform="matrix(-.00000009 -.0390662 .0703192 -.00000005 -5.227395 31.753564)" gradientUnits="userSpaceOnUse" r="21.166656" xlink:href="#a"/><radialGradient id="e" cx="450.908936" cy="189.579361" gradientTransform="matrix(.00000009 .0390662 -.0703192 .00000005 21.103912 -3.807842)" gradientUnits="userSpaceOnUse" r="21.166656" xlink:href="#a"/><linearGradient id="f" gradientUnits="userSpaceOnUse" x1="7.938262" x2="7.938262" y1="14.0169675" y2="2.1095745"><stop offset="0" stop-color="#009688"/><stop offset="1" stop-color="#26a69a"/></linearGradient><linearGradient id="g"><stop offset="0" stop-color="#78909c"/><stop offset="1" stop-color="#90a4ae"/></linearGradient><linearGradient id="h" gradientUnits="userSpaceOnUse" x1="7.938262" x2="7.938262" xlink:href="#g" y1="14.0169675" y2="2.1095745"/><linearGradient id="i" gradientUnits="userSpaceOnUse" x1="7.938262" x2="7.938262" xlink:href="#g" y1="14.0169665" y2="2.1095735"/><linearGradient id="j" gradientUnits="userSpaceOnUse" x1="7.938262" x2="7.938262" y1="14.0169675" y2="1.44805249998"><stop offset="0" stop-color="#ffa726"/><stop offset="1" stop-color="#ffb74d"/></linearGradient><linearGradient id="k" gradientUnits="userSpaceOnUse" x1="7.938262" x2="7.938262" y1="14.0169675" y2="2.1095745"><stop offset="0" stop-color="#f44336"/><stop offset="1" stop-color="#ef5350"/></linearGradient><path d="m7.9375 13.972656h1.324219v-.660156h-1.324219zm0 0" fill="url(#b)"/><path d="m7.9375 13.972656h-1.324219v.660156h1.324219zm0 0" fill="url(#c)"/><path d="m7.9375 13.972656h-1.324219v-.660156h1.324219zm0 0" fill="url(#d)"/><path d="m7.9375 13.972656h1.324219v.660156h-1.324219zm0 0" fill="url(#e)"/><path d="m7.9375 10.128906c-.96875 0-1.839844.414063-2.445312 1.078125l1.765624 2.5625c.351563.332031 1.011719.332031 1.363282 0l1.761718-2.5625c-.605468-.664062-1.472656-1.078125-2.445312-1.078125zm0 0" fill="url(#f)"/><path d="m7.9375 2.191406c-2.640625 0-5.0625.902344-6.980469 2.417969l1.128907 1.640625c1.59375-1.296875 3.628906-2.074219 5.851562-2.074219s4.257812.777344 5.851562 2.074219l1.128907-1.640625c-1.914063-1.515625-4.339844-2.417969-6.980469-2.417969zm0 0" fill="url(#h)"/><path d="m7.9375 6.160156c-1.804688 0-3.453125.652344-4.722656 1.734375l1.136718 1.648438c.941407-.867188 2.199219-1.398438 3.585938-1.398438s2.648438.53125 3.589844 1.398438l1.132812-1.648438c-1.269531-1.082031-2.917968-1.734375-4.722656-1.734375zm0 0" fill="url(#f)"/><path d="m7.9375 6.160156c-1.804688 0-3.453125.652344-4.722656 1.734375l1.136718 1.648438c.941407-.867188 2.199219-1.398438 3.585938-1.398438s2.648438.53125 3.589844 1.398438l1.132812-1.648438c-1.269531-1.082031-2.917968-1.734375-4.722656-1.734375zm0 0" fill="url(#i)"/><path d="m7.9375 10.128906c-.96875 0-1.839844.414063-2.445312 1.078125l1.765624 2.5625c.351563.332031 1.011719.332031 1.363282 0l1.761718-2.5625c-.605468-.664062-1.472656-1.078125-2.445312-1.078125zm0 0" fill="url(#i)"/><path d="m7.9375 4.054688c-2.222656 0-4.257812.773437-5.851562 2.070312l-1.074219-1.558594c-.015625.011719-.035157.027344-.054688.042969l1.128907 1.640625c1.59375-1.296875 3.628906-2.074219 5.851562-2.074219s4.257812.777344 5.851562 2.074219l1.128907-1.640625c-.019531-.015625-.035157-.03125-.054688-.042969l-1.074219 1.558594c-1.59375-1.296875-3.628906-2.070312-5.851562-2.070312zm-4.667969 3.792968c-.015625.015625-.035156.03125-.054687.046875l1.136718 1.648438c.941407-.867188 2.199219-1.398438 3.585938-1.398438s2.648438.53125 3.589844 1.398438l1.132812-1.648438c-.019531-.015625-.035156-.03125-.054687-.046875l-1.078125 1.570313c-.941406-.867188-2.203125-1.394531-3.589844-1.394531s-2.644531.527343-3.585938 1.394531zm2.273438 3.304688c-.015625.019531-.03125.035156-.050781.054687l1.765624 2.5625c.351563.332031 1.011719.332031 1.363282 0l1.761718-2.5625c-.015624-.019531-.03125-.035156-.050781-.054687l-1.710937 2.492187c-.351563.332031-1.011719.332031-1.363282 0zm0 0" fill-opacity=".235294"/><path d="m7.9375 2.191406c-2.640625 0-5.0625.902344-6.980469 2.417969l.074219.105469c1.902344-1.476563 4.300781-2.355469 6.90625-2.355469 2.609375 0 5.003906.878906 6.90625 2.355469l.074219-.105469c-1.914063-1.515625-4.339844-2.417969-6.980469-2.417969zm0 3.96875c-1.804688 0-3.453125.652344-4.722656 1.734375l.074218.101563c1.257813-1.042969 2.878907-1.667969 4.648438-1.667969 1.773438 0 3.390625.625 4.652344 1.667969l.070312-.101563c-1.269531-1.082031-2.917968-1.734375-4.722656-1.734375zm0 3.96875c-.96875 0-1.839844.414063-2.445312 1.078125l.066406.09375c.601562-.621093 1.445312-1.003906 2.378906-1.003906.9375 0 1.777344.382813 2.378906 1.003906l.066406-.09375c-.605468-.664062-1.472656-1.078125-2.445312-1.078125zm0 0" fill="#fff" fill-opacity=".392157"/><path d="m7.9375 2.144531c-2.652344 0-5.085938.90625-7.007812 2.425781l-.035157.027344 1.183594 1.71875.039063-.03125c1.582031-1.289062 3.609374-2.0625 5.820312-2.0625 2.214844 0 4.238281.773438 5.824219 2.0625l.039062.03125 1.179688-1.71875-.03125-.027344c-1.925781-1.519531-4.359375-2.425781-7.011719-2.425781zm0 .09375c2.617188 0 5.015625.886719 6.917969 2.378907l-1.074219 1.566406c-1.597656-1.285156-3.628906-2.054688-5.84375-2.054688s-4.246094.769532-5.839844 2.054688l-1.074218-1.566406c1.898437-1.492188 4.300781-2.378907 6.914062-2.378907zm0 3.875c-1.816406 0-3.472656.65625-4.75 1.742188l-.035156.027343 1.191406 1.730469.039062-.035156c.933594-.863281 2.179688-1.386719 3.554688-1.386719s2.625.523438 3.558594 1.386719l.039062.035156 1.1875-1.730469-.03125-.027343c-1.277344-1.085938-2.9375-1.742188-4.753906-1.742188zm0 .09375c1.78125 0 3.402344.636719 4.660156 1.695313l-1.078125 1.570312c-.949219-.855468-2.203125-1.375-3.582031-1.375s-2.632812.519532-3.578125 1.375l-1.078125-1.570312c1.253906-1.058594 2.878906-1.695313 4.65625-1.695313zm0 3.875c-.984375 0-1.867188.421875-2.476562 1.09375l-.027344.027344 1.785156 2.597656.003906.003907c.1875.171874.453125.257812.714844.257812.265625 0 .527344-.085938.714844-.257812l.003906-.003907 1.785156-2.597656-.023437-.027344c-.613281-.671875-1.496094-1.09375-2.480469-1.09375zm0 .09375c.945312 0 1.789062.398438 2.386719 1.035157l-1.738281 2.527343c-.164063.152344-.40625.230469-.648438.230469s-.480469-.078125-.644531-.230469l-1.738281-2.527343c.59375-.636719 1.441406-1.035157 2.382812-1.035157zm0 0" fill="#212121"/><path d="m7.9375 10.925781-.5-2.425781-2.070312 1.363281 1.359374-2.074219-2.425781-.5 2.425781-.5-1.359374-2.074218 2.070312 1.363281.5-2.425781.503906 2.425781 2.070313-1.363281-1.363281 2.074218 2.429687.5-2.429687.5 1.363281 2.074219-2.070313-1.363281zm0 0" fill="url(#j)"/><path d="m5.367188 4.988281 1.203124 1.832031.15625-.03125-1.042968-1.589843zm5.144531 0-.316407.210938-1.046874 1.589843.15625.03125zm-5.550781 2.4375-.660157.136719 2.269531.46875.15625-.242188zm5.953124 0-1.765624.363281.15625.242188 2.273437-.46875zm-3.476562 1.074219-1.753906 1.152344-.316406.480468 2.070312-1.359374.5 2.425781.503906-2.425781 2.070313 1.359374-.316407-.480468-1.753906-1.152344-.503906 2.425781zm0 0" fill-opacity=".235294"/><path d="m253.975747 134.591616-15.998473-77.617588-66.243674 43.620834 43.495847-66.368662-77.617588-15.998472 77.617588-15.998472-43.495847-66.368662 66.243674 43.620834 15.998473-77.617588 16.12346 77.617588 66.243674-43.620834-43.620835 66.368662 77.742576 15.998472-77.742576 15.998472 43.620835 66.368662-66.243674-43.620834zm0 0" fill="none" stroke="#212121" stroke-linecap="round" stroke-linejoin="round" stroke-width="3" transform="matrix(.031253 0 0 .031253 0 6.719392)"/><path d="m7.921875 8.828125-.234375-1.136719-.972656.636719.640625-.972656-1.140625-.234375 1.140625-.234375-.640625-.96875.972656.636719.234375-1.136719.234375 1.136719.96875-.636719-.636719.96875 1.136719.234375-1.136719.234375.636719.972656-.96875-.636719zm0 0" fill="url(#k)"/></svg>

<?xml version="1.0" encoding="UTF-8"?>
<svg xmlns="http://www.w3.org/2000/svg" xmlns:xlink="http://www.w3.org/1999/xlink" width="16px" height="16px" viewBox="0 0 16 16" version="1.1">
<defs>
<radialGradient id="radial0" gradientUnits="userSpaceOnUse" cx="450.908936" cy="189.579361" fx="450.908936" fy="189.579361" r="21.166656" gradientTransform="matrix(0.0000000870852,-0.0390662,-0.0703192,-0.0000000507693,21.103913,31.753564)">
<stop offset="0" style="stop-color:rgb(0%,0%,0%);stop-opacity:0.313726;"/>
<stop offset="0.222222" style="stop-color:rgb(0%,0%,0%);stop-opacity:0.27451;"/>
<stop offset="1" style="stop-color:rgb(0%,0%,0%);stop-opacity:0;"/>
</radialGradient>
<radialGradient id="radial1" gradientUnits="userSpaceOnUse" cx="450.908936" cy="189.579361" fx="450.908936" fy="189.579361" r="21.166656" gradientTransform="matrix(-0.0000000870852,0.0390662,0.0703192,0.0000000507693,-5.227395,-3.807842)">
<stop offset="0" style="stop-color:rgb(0%,0%,0%);stop-opacity:0.313726;"/>
<stop offset="0.222222" style="stop-color:rgb(0%,0%,0%);stop-opacity:0.27451;"/>
<stop offset="1" style="stop-color:rgb(0%,0%,0%);stop-opacity:0;"/>
</radialGradient>
<radialGradient id="radial2" gradientUnits="userSpaceOnUse" cx="450.908936" cy="189.579361" fx="450.908936" fy="189.579361" r="21.166656" gradientTransform="matrix(-0.0000000870852,-0.0390662,0.0703192,-0.0000000507693,-5.227395,31.753564)">
<stop offset="0" style="stop-color:rgb(0%,0%,0%);stop-opacity:0.313726;"/>
<stop offset="0.222222" style="stop-color:rgb(0%,0%,0%);stop-opacity:0.27451;"/>
<stop offset="1" style="stop-color:rgb(0%,0%,0%);stop-opacity:0;"/>
</radialGradient>
<radialGradient id="radial3" gradientUnits="userSpaceOnUse" cx="450.908936" cy="189.579361" fx="450.908936" fy="189.579361" r="21.166656" gradientTransform="matrix(0.0000000870852,0.0390662,-0.0703192,0.0000000507693,21.103912,-3.807842)">
<stop offset="0" style="stop-color:rgb(0%,0%,0%);stop-opacity:0.313726;"/>
<stop offset="0.222222" style="stop-color:rgb(0%,0%,0%);stop-opacity:0.27451;"/>
<stop offset="1" style="stop-color:rgb(0%,0%,0%);stop-opacity:0;"/>
</radialGradient>
<linearGradient id="linear0" gradientUnits="userSpaceOnUse" x1="254" y1="233.5" x2="254" y2="-147.5" gradientTransform="matrix(0.031253,0,0,0.031253,0,6.719392)">
<stop offset="0" style="stop-color:rgb(0%,58.823532%,53.333336%);stop-opacity:1;"/>
<stop offset="1" style="stop-color:rgb(14.901961%,65.098041%,60.392159%);stop-opacity:1;"/>
</linearGradient>
<linearGradient id="linear1" gradientUnits="userSpaceOnUse" x1="254" y1="233.5" x2="254" y2="-147.5" gradientTransform="matrix(0.031253,0,0,0.031253,0,6.719392)">
<stop offset="0" style="stop-color:rgb(47.058824%,56.470591%,61.176473%);stop-opacity:1;"/>
<stop offset="1" style="stop-color:rgb(56.470591%,64.313728%,68.235296%);stop-opacity:1;"/>
</linearGradient>
<linearGradient id="linear2" gradientUnits="userSpaceOnUse" x1="254" y1="233.5" x2="254" y2="-147.5" gradientTransform="matrix(0.031253,0,0,0.031253,0,6.719392)">
<stop offset="0" style="stop-color:rgb(0%,58.823532%,53.333336%);stop-opacity:1;"/>
<stop offset="1" style="stop-color:rgb(14.901961%,65.098041%,60.392159%);stop-opacity:1;"/>
</linearGradient>
<linearGradient id="linear3" gradientUnits="userSpaceOnUse" x1="254" y1="233.5" x2="254" y2="-147.5" gradientTransform="matrix(0.031253,0,0,0.031253,0,6.719391)">
<stop offset="0" style="stop-color:rgb(47.058824%,56.470591%,61.176473%);stop-opacity:1;"/>
<stop offset="1" style="stop-color:rgb(56.470591%,64.313728%,68.235296%);stop-opacity:1;"/>
</linearGradient>
<linearGradient id="linear4" gradientUnits="userSpaceOnUse" x1="254" y1="233.5" x2="254" y2="-147.5" gradientTransform="matrix(0.031253,0,0,0.031253,0,6.719391)">
<stop offset="0" style="stop-color:rgb(47.058824%,56.470591%,61.176473%);stop-opacity:1;"/>
<stop offset="1" style="stop-color:rgb(56.470591%,64.313728%,68.235296%);stop-opacity:1;"/>
</linearGradient>
<linearGradient id="linear5" gradientUnits="userSpaceOnUse" x1="254" y1="233.5" x2="254" y2="-168.666672" gradientTransform="matrix(0.031253,0,0,0.031253,0,6.719392)">
<stop offset="0" style="stop-color:rgb(100%,65.490198%,14.901961%);stop-opacity:1;"/>
<stop offset="1" style="stop-color:rgb(100%,71.764708%,30.19608%);stop-opacity:1;"/>
</linearGradient>
<linearGradient id="linear6" gradientUnits="userSpaceOnUse" x1="254" y1="233.5" x2="254" y2="-147.5" gradientTransform="matrix(0.031253,0,0,0.031253,0,6.719392)">
<stop offset="0" style="stop-color:rgb(95.686275%,26.274511%,21.176471%);stop-opacity:1;"/>
<stop offset="1" style="stop-color:rgb(93.725491%,32.549021%,31.37255%);stop-opacity:1;"/>
</linearGradient>
</defs>
<g id="surface1">
<path style=" stroke:none;fill-rule:nonzero;fill:url(#radial0);" d="M 7.9375 13.972656 L 9.261719 13.972656 L 9.261719 13.3125 L 7.9375 13.3125 Z M 7.9375 13.972656 "/>
<path style=" stroke:none;fill-rule:nonzero;fill:url(#radial1);" d="M 7.9375 13.972656 L 6.613281 13.972656 L 6.613281 14.632812 L 7.9375 14.632812 Z M 7.9375 13.972656 "/>
<path style=" stroke:none;fill-rule:nonzero;fill:url(#radial2);" d="M 7.9375 13.972656 L 6.613281 13.972656 L 6.613281 13.3125 L 7.9375 13.3125 Z M 7.9375 13.972656 "/>
<path style=" stroke:none;fill-rule:nonzero;fill:url(#radial3);" d="M 7.9375 13.972656 L 9.261719 13.972656 L 9.261719 14.632812 L 7.9375 14.632812 Z M 7.9375 13.972656 "/>
<path style=" stroke:none;fill-rule:nonzero;fill:url(#linear0);" d="M 7.9375 10.128906 C 6.96875 10.128906 6.097656 10.542969 5.492188 11.207031 L 7.257812 13.769531 C 7.609375 14.101562 8.269531 14.101562 8.621094 13.769531 L 10.382812 11.207031 C 9.777344 10.542969 8.910156 10.128906 7.9375 10.128906 Z M 7.9375 10.128906 "/>
<path style=" stroke:none;fill-rule:nonzero;fill:url(#linear1);" d="M 7.9375 2.191406 C 5.296875 2.191406 2.875 3.09375 0.957031 4.609375 L 2.085938 6.25 C 3.679688 4.953125 5.714844 4.175781 7.9375 4.175781 C 10.160156 4.175781 12.195312 4.953125 13.789062 6.25 L 14.917969 4.609375 C 13.003906 3.09375 10.578125 2.191406 7.9375 2.191406 Z M 7.9375 2.191406 "/>
<path style=" stroke:none;fill-rule:nonzero;fill:url(#linear2);" d="M 7.9375 6.160156 C 6.132812 6.160156 4.484375 6.8125 3.214844 7.894531 L 4.351562 9.542969 C 5.292969 8.675781 6.550781 8.144531 7.9375 8.144531 C 9.324219 8.144531 10.585938 8.675781 11.527344 9.542969 L 12.660156 7.894531 C 11.390625 6.8125 9.742188 6.160156 7.9375 6.160156 Z M 7.9375 6.160156 "/>
<path style=" stroke:none;fill-rule:nonzero;fill:url(#linear3);" d="M 7.9375 6.160156 C 6.132812 6.160156 4.484375 6.8125 3.214844 7.894531 L 4.351562 9.542969 C 5.292969 8.675781 6.550781 8.144531 7.9375 8.144531 C 9.324219 8.144531 10.585938 8.675781 11.527344 9.542969 L 12.660156 7.894531 C 11.390625 6.8125 9.742188 6.160156 7.9375 6.160156 Z M 7.9375 6.160156 "/>
<path style=" stroke:none;fill-rule:nonzero;fill:url(#linear4);" d="M 7.9375 10.128906 C 6.96875 10.128906 6.097656 10.542969 5.492188 11.207031 L 7.257812 13.769531 C 7.609375 14.101562 8.269531 14.101562 8.621094 13.769531 L 10.382812 11.207031 C 9.777344 10.542969 8.910156 10.128906 7.9375 10.128906 Z M 7.9375 10.128906 "/>
<path style=" stroke:none;fill-rule:nonzero;fill:rgb(0%,0%,0%);fill-opacity:0.235294;" d="M 7.9375 4.054688 C 5.714844 4.054688 3.679688 4.828125 2.085938 6.125 L 1.011719 4.566406 C 0.996094 4.578125 0.976562 4.59375 0.957031 4.609375 L 2.085938 6.25 C 3.679688 4.953125 5.714844 4.175781 7.9375 4.175781 C 10.160156 4.175781 12.195312 4.953125 13.789062 6.25 L 14.917969 4.609375 C 14.898438 4.59375 14.882812 4.578125 14.863281 4.566406 L 13.789062 6.125 C 12.195312 4.828125 10.160156 4.054688 7.9375 4.054688 Z M 3.269531 7.847656 C 3.253906 7.863281 3.234375 7.878906 3.214844 7.894531 L 4.351562 9.542969 C 5.292969 8.675781 6.550781 8.144531 7.9375 8.144531 C 9.324219 8.144531 10.585938 8.675781 11.527344 9.542969 L 12.660156 7.894531 C 12.640625 7.878906 12.625 7.863281 12.605469 7.847656 L 11.527344 9.417969 C 10.585938 8.550781 9.324219 8.023438 7.9375 8.023438 C 6.550781 8.023438 5.292969 8.550781 4.351562 9.417969 Z M 5.542969 11.152344 C 5.527344 11.171875 5.511719 11.1875 5.492188 11.207031 L 7.257812 13.769531 C 7.609375 14.101562 8.269531 14.101562 8.621094 13.769531 L 10.382812 11.207031 C 10.367188 11.1875 10.351562 11.171875 10.332031 11.152344 L 8.621094 13.644531 C 8.269531 13.976562 7.609375 13.976562 7.257812 13.644531 Z M 5.542969 11.152344 "/>
<path style=" stroke:none;fill-rule:nonzero;fill:rgb(100%,100%,100%);fill-opacity:0.392157;" d="M 7.9375 2.191406 C 5.296875 2.191406 2.875 3.09375 0.957031 4.609375 L 1.03125 4.714844 C 2.933594 3.238281 5.332031 2.359375 7.9375 2.359375 C 10.546875 2.359375 12.941406 3.238281 14.84375 4.714844 L 14.917969 4.609375 C 13.003906 3.09375 10.578125 2.191406 7.9375 2.191406 Z M 7.9375 6.160156 C 6.132812 6.160156 4.484375 6.8125 3.214844 7.894531 L 3.289062 7.996094 C 4.546875 6.953125 6.167969 6.328125 7.9375 6.328125 C 9.710938 6.328125 11.328125 6.953125 12.589844 7.996094 L 12.660156 7.894531 C 11.390625 6.8125 9.742188 6.160156 7.9375 6.160156 Z M 7.9375 10.128906 C 6.96875 10.128906 6.097656 10.542969 5.492188 11.207031 L 5.558594 11.300781 C 6.160156 10.679688 7.003906 10.296875 7.9375 10.296875 C 8.875 10.296875 9.714844 10.679688 10.316406 11.300781 L 10.382812 11.207031 C 9.777344 10.542969 8.910156 10.128906 7.9375 10.128906 Z M 7.9375 10.128906 "/>
<path style=" stroke:none;fill-rule:nonzero;fill:rgb(12.941177%,12.941177%,12.941177%);fill-opacity:1;" d="M 7.9375 2.144531 C 5.285156 2.144531 2.851562 3.050781 0.929688 4.570312 L 0.894531 4.597656 L 2.078125 6.316406 L 2.117188 6.285156 C 3.699219 4.996094 5.726562 4.222656 7.9375 4.222656 C 10.152344 4.222656 12.175781 4.996094 13.761719 6.285156 L 13.800781 6.316406 L 14.980469 4.597656 L 14.949219 4.570312 C 13.023438 3.050781 10.589844 2.144531 7.9375 2.144531 Z M 7.9375 2.238281 C 10.554688 2.238281 12.953125 3.125 14.855469 4.617188 L 13.78125 6.183594 C 12.183594 4.898438 10.152344 4.128906 7.9375 4.128906 C 5.722656 4.128906 3.691406 4.898438 2.097656 6.183594 L 1.023438 4.617188 C 2.921875 3.125 5.324219 2.238281 7.9375 2.238281 Z M 7.9375 6.113281 C 6.121094 6.113281 4.464844 6.769531 3.1875 7.855469 L 3.152344 7.882812 L 4.34375 9.613281 L 4.382812 9.578125 C 5.316406 8.714844 6.5625 8.191406 7.9375 8.191406 C 9.3125 8.191406 10.5625 8.714844 11.496094 9.578125 L 11.535156 9.613281 L 12.722656 7.882812 L 12.691406 7.855469 C 11.414062 6.769531 9.753906 6.113281 7.9375 6.113281 Z M 7.9375 6.207031 C 9.71875 6.207031 11.339844 6.84375 12.597656 7.902344 L 11.519531 9.472656 C 10.570312 8.617188 9.316406 8.097656 7.9375 8.097656 C 6.558594 8.097656 5.304688 8.617188 4.359375 9.472656 L 3.28125 7.902344 C 4.535156 6.84375 6.160156 6.207031 7.9375 6.207031 Z M 7.9375 10.082031 C 6.953125 10.082031 6.070312 10.503906 5.460938 11.175781 L 5.433594 11.203125 L 7.21875 13.800781 L 7.222656 13.804688 C 7.410156 13.976562 7.675781 14.0625 7.9375 14.0625 C 8.203125 14.0625 8.464844 13.976562 8.652344 13.804688 L 8.65625 13.800781 L 10.441406 11.203125 L 10.417969 11.175781 C 9.804688 10.503906 8.921875 10.082031 7.9375 10.082031 Z M 7.9375 10.175781 C 8.882812 10.175781 9.726562 10.574219 10.324219 11.210938 L 8.585938 13.738281 C 8.421875 13.890625 8.179688 13.96875 7.9375 13.96875 C 7.695312 13.96875 7.457031 13.890625 7.292969 13.738281 L 5.554688 11.210938 C 6.148438 10.574219 6.996094 10.175781 7.9375 10.175781 Z M 7.9375 10.175781 "/>
<path style=" stroke:none;fill-rule:nonzero;fill:url(#linear5);" d="M 7.9375 10.925781 L 7.4375 8.5 L 5.367188 9.863281 L 6.726562 7.789062 L 4.300781 7.289062 L 6.726562 6.789062 L 5.367188 4.714844 L 7.4375 6.078125 L 7.9375 3.652344 L 8.441406 6.078125 L 10.511719 4.714844 L 9.148438 6.789062 L 11.578125 7.289062 L 9.148438 7.789062 L 10.511719 9.863281 L 8.441406 8.5 Z M 7.9375 10.925781 "/>
<path style=" stroke:none;fill-rule:nonzero;fill:rgb(0%,0%,0%);fill-opacity:0.235294;" d="M 5.367188 4.988281 L 6.570312 6.820312 L 6.726562 6.789062 L 5.683594 5.199219 Z M 10.511719 4.988281 L 10.195312 5.199219 L 9.148438 6.789062 L 9.304688 6.820312 Z M 4.960938 7.425781 L 4.300781 7.5625 L 6.570312 8.03125 L 6.726562 7.789062 Z M 10.914062 7.425781 L 9.148438 7.789062 L 9.304688 8.03125 L 11.578125 7.5625 Z M 7.4375 8.5 L 5.683594 9.652344 L 5.367188 10.132812 L 7.4375 8.773438 L 7.9375 11.199219 L 8.441406 8.773438 L 10.511719 10.132812 L 10.195312 9.652344 L 8.441406 8.5 L 7.9375 10.925781 Z M 7.4375 8.5 "/>
<path style="fill:none;stroke-width:3;stroke-linecap:round;stroke-linejoin:round;stroke:rgb(12.941177%,12.941177%,12.941177%);stroke-opacity:1;stroke-miterlimit:4;" d="M 253.975747 134.591616 L 237.977274 56.974028 L 171.7336 100.594862 L 215.229447 34.2262 L 137.611859 18.227728 L 215.229447 2.229256 L 171.7336 -64.139406 L 237.977274 -20.518572 L 253.975747 -98.13616 L 270.099207 -20.518572 L 336.342881 -64.139406 L 292.722046 2.229256 L 370.464622 18.227728 L 292.722046 34.2262 L 336.342881 100.594862 L 270.099207 56.974028 Z M 253.975747 134.591616 " transform="matrix(0.031253,0,0,0.031253,0,6.719392)"/>
<path style=" stroke:none;fill-rule:nonzero;fill:url(#linear6);" d="M 7.921875 8.828125 L 7.6875 7.691406 L 6.714844 8.328125 L 7.355469 7.355469 L 6.214844 7.121094 L 7.355469 6.886719 L 6.714844 5.917969 L 7.6875 6.554688 L 7.921875 5.417969 L 8.15625 6.554688 L 9.125 5.917969 L 8.488281 6.886719 L 9.625 7.121094 L 8.488281 7.355469 L 9.125 8.328125 L 8.15625 7.691406 Z M 7.921875 8.828125 "/>
</g>
</svg>
